svg/gearFill.svg

<svg width="284" height="284" viewBox="0 0 284 284" fill="none" xmlns="http://www.w3.org/2000/svg">
<path fill-rule="evenodd" clip-rule="evenodd" d="M141.568 196.155C111.677 196.155 87.3599 171.838 87.3599 141.946C87.3599 112.056 111.677 87.7388 141.568 87.7388C171.459 87.7388 195.776 112.056 195.776 141.946C195.776 171.838 171.459 196.155 141.568 196.155Z" fill="#1A1919"/>
<path fill-rule="evenodd" clip-rule="evenodd" d="M228.542 154.944C229.845 146.293 229.849 137.573 228.549 128.942L244.486 114.554L246.088 108.621C245.142 105.661 244.077 102.748 242.923 99.9648C241.767 97.1708 240.46 94.3588 239.04 91.6058L233.713 88.5418L212.268 89.6368C207.082 82.6128 200.915 76.4498 193.877 71.2558L194.972 49.8058L191.909 44.4788C186.462 41.6668 180.735 39.2958 174.892 37.4288L168.959 39.0308L154.566 54.9738C150.435 54.3528 146.262 54.0368 142.089 54.0098V79.2758C176.366 79.5568 204.068 107.42 204.068 141.764C204.068 176.282 176.086 204.265 141.567 204.265C107.048 204.265 79.0663 176.282 79.0663 141.764C79.0663 107.245 107.048 79.2618 141.567 79.2618C141.742 79.2618 141.914 79.2738 142.089 79.2758V54.0098C137.563 53.9818 133.037 54.2948 128.563 54.9658L114.174 39.0268L108.239 37.4258C105.277 38.3728 102.365 39.4388 99.5853 40.5908C96.7973 41.7458 93.9863 43.0508 91.2293 44.4708L88.1633 49.7998L89.2593 71.2458C82.2383 76.4278 76.0733 82.5968 70.8763 89.6378L49.4253 88.5418L44.0973 91.6058C41.2863 97.0558 38.9153 102.782 37.0493 108.622L38.6503 114.555L54.5933 128.95C53.2893 137.6 53.2873 146.32 54.5873 154.952L38.6493 169.342L37.0483 175.276C37.9883 178.216 39.0513 181.128 40.2103 183.93C41.3623 186.711 42.6683 189.521 44.0923 192.286L49.4213 195.351L70.8673 194.257C76.0523 201.279 82.2193 207.442 89.2603 212.637L88.1633 234.088L91.2253 239.414C96.6753 242.227 102.401 244.599 108.245 246.465L114.176 244.862L128.571 228.92C137.184 230.214 145.975 230.215 154.57 228.926L168.962 244.866L174.897 246.466C177.846 245.523 180.757 244.459 183.55 243.302C186.345 242.145 189.156 240.84 191.908 239.422L194.974 234.092L193.877 212.647C200.899 207.463 207.063 201.296 212.259 194.256L233.708 195.351L239.036 192.288C241.847 186.842 244.218 181.116 246.085 175.27L244.483 169.338L228.542 154.944Z" fill="#1A1919"/>
</svg>

<svg width="284" height="284" viewBox="0 0 284 284" xmlns="http://www.w3.org/2000/svg">
    <g fill="#1A1918" fill-rule="evenodd">
        <path d="M141.568 196.155c-29.891 0-54.208-24.317-54.208-54.21 0-29.89 24.317-54.206 54.208-54.206 29.89 0 54.208 24.317 54.208 54.207 0 29.892-24.317 54.209-54.208 54.209"/>
        <path d="M228.542 154.944a87.068 87.068 0 0 0 .007-26.002l15.937-14.388 1.602-5.933a110.587 110.587 0 0 0-3.165-8.656 110.355 110.355 0 0 0-3.883-8.359l-5.327-3.064-21.445 1.095a87.048 87.048 0 0 0-18.39-18.381l1.094-21.45-3.063-5.327a110.57 110.57 0 0 0-17.017-7.05l-5.933 1.602-14.393 15.943a87.776 87.776 0 0 0-12.477-.964v25.266c34.277.281 61.98 28.144 61.98 62.488 0 34.518-27.983 62.501-62.502 62.501-34.519 0-62.5-27.983-62.5-62.501 0-34.519 27.981-62.502 62.5-62.502.175 0 .347.012.522.014V54.01a87.571 87.571 0 0 0-13.526.956l-14.389-15.939-5.935-1.601a111.015 111.015 0 0 0-8.654 3.165 111.69 111.69 0 0 0-8.356 3.88L88.163 49.8l1.096 21.446a87.039 87.039 0 0 0-18.383 18.392l-21.45-1.096-5.329 3.064a110.797 110.797 0 0 0-7.048 17.016l1.601 5.933 15.943 14.395a87.035 87.035 0 0 0-.006 26.002l-15.938 14.39-1.6 5.934c.94 2.94 2.002 5.852 3.161 8.654a111.703 111.703 0 0 0 3.882 8.356l5.33 3.065 21.445-1.094a87.03 87.03 0 0 0 18.393 18.38l-1.097 21.451 3.062 5.326a110.49 110.49 0 0 0 17.02 7.051l5.931-1.603 14.395-15.942a87.715 87.715 0 0 0 26 .006l14.391 15.94 5.935 1.6c2.95-.943 5.86-2.007 8.653-3.164a111.108 111.108 0 0 0 8.358-3.88l3.066-5.33-1.097-21.445a87.052 87.052 0 0 0 18.382-18.391l21.45 1.095 5.327-3.063a110.51 110.51 0 0 0 7.05-17.018l-1.603-5.932-15.94-14.394z"/>
    </g>
</svg>
